docs/imgs/icons/ico-feature-trends.svg

<svg width="48" height="48" fill="none" xmlns="http://www.w3.org/2000/svg"><path d="M24 35.4c-.2 0-.3 0-.5-.1C23 34.9 11 27.5 11 18.2c0-5.3 3.5-8.1 7-8.1 2.2 0 4.6 1.1 6 3.6 1.4-2.5 3.8-3.7 6.1-3.7 3.4 0 6.9 2.6 6.9 7.5 0 8.6-11.9 17.3-12.4 17.6-.2.2-.4.3-.6.3zm-6-23.1c-2.4 0-5 1.9-5 5.9 0 7 8.7 13.3 11 14.8 2.2-1.7 11-8.9 11-15.5 0-3.7-2.5-5.4-4.9-5.4-2 0-4.6 1.3-5.1 4.9-.1.5-.5.9-1 .9s-.9-.4-1-.9c-.5-3.5-3-4.7-5-4.7z" fill="#666"/><path d="M2.7 47.7c-.3 0-.5-.1-.7-.3-.3-.3-.4-.8-.2-1.2l4.8-10.3C2.4 31.9 0 26.7 0 21.2 0 9.5 10.8 0 24 0s24 9.5 24 21.2-10.8 21.2-24 21.2c-2.7 0-5.4-.4-8-1.2L3.1 47.6c-.1.1-.2.1-.4.1zM24 2.1c-12.1 0-22 8.5-22 19.1 0 5.1 2.3 9.9 6.5 13.5.4.3.5.9.3 1.3l-3.9 8.3L15.5 39h.7c2.5.8 5.1 1.2 7.8 1.2 12.1 0 22-8.5 22-19.1 0-10.6-9.9-19-22-19z" fill="#666"/></svg>

<svg width="48" height="48" viewBox="0 0 48 48" fill="none" xmlns="http://www.w3.org/2000/svg">
<path d="M24 35.4C23.8 35.4 23.7 35.4 23.5 35.3C23 34.9 11 27.5 11 18.2C11 12.9 14.5 10.1 18 10.1C20.2 10.1 22.6 11.2 24 13.7C25.4 11.2 27.8 10 30.1 10C33.5 10 37 12.6 37 17.5C37 26.1 25.1 34.8 24.6 35.1C24.4 35.3 24.2 35.4 24 35.4ZM18 12.3C15.6 12.3 13 14.2 13 18.2C13 25.2 21.7 31.5 24 33C26.2 31.3 35 24.1 35 17.5C35 13.8 32.5 12.1 30.1 12.1C28.1 12.1 25.5 13.4 25 17C24.9 17.5 24.5 17.9 24 17.9C23.5 17.9 23.1 17.5 23 17C22.5 13.5 20 12.3 18 12.3Z" fill="#666666"/>
<path d="M2.7 47.7C2.4 47.7 2.2 47.6 2 47.4C1.7 47.1 1.6 46.6 1.8 46.2L6.6 35.9C2.4 31.9 0 26.7 0 21.2C0 9.5 10.8 0 24 0C37.2 0 48 9.5 48 21.2C48 32.9 37.2 42.4 24 42.4C21.3 42.4 18.6 42 16 41.2L3.1 47.6C3 47.7 2.9 47.7 2.7 47.7ZM24 2.1C11.9 2.1 2 10.6 2 21.2C2 26.3 4.3 31.1 8.5 34.7C8.9 35 9 35.6 8.8 36L4.9 44.3L15.5 39C15.7 39 16 39 16.2 39C18.7 39.8 21.3 40.2 24 40.2C36.1 40.2 46 31.7 46 21.1C46 10.5 36.1 2.1 24 2.1Z" fill="#666666"/>
</svg>
